X: 142105
T: LIVERPOOL HORNPIPE
R:  Hornpipe.
%R: hornpipe
B: James Kerr "Merry Melodies" v.1 p.42 s.1 #5
Z: 2016 John Chambers <jc:trillian.mit.edu>
M: C
L: 1/8
K: D
(A>G) |\
F>DF>A d>fa>f | g>fe>d d>cB>A |\
G>BG>B F>AF>A | E>FG>A G>FE>D |\
F>DF>A d>fa>f | g>fe>d d>cB>A |\
d>fa>f b>ge>c | d2d2d2 :|
(3(ABc) |\
d.fd>f c>ec>e | B>cd>e d>cB>A |\
G>BG>B F>AF>A | E>FG>A G>FE>D |\
F>DF>A d>fa>f | g>fe>d d>cB>A |\
d>fa>f b>ge>c | d2d2d2 |]

%%sep 1 1 500
%%sep 1 1 500

